X: 79
T: Missa Inviolata / Gloria
N: Derived from Rue1017b-Missa_Inviolata-Gloria.krn
C: Pierre de la Rue
%%abc-version 2.0
%%abcx-abcm2ps-target-version 5.9.1 (29 Sep 2008)
%%abc-creator hum2abc beta
%%abcx-conversion-date 2019/02/17 08:01:13
%%abc-edited-by Jesse Rodin
%%abc-edited-by Chris Gage 05-14-2013
%%abcx-initial-encoding-date 2013/07/24/
%%humdrum-veritas 3980991789
%%humdrum-veritas-data 2615827495
%%linebreak <none>
%%barnumbers 0
L: 1/4
M: 4/2
Q: 1/2=120
%%staves [1 2 3 4]
V: 1 clef=treble
V: 2 clef=treble
V: 3 clef=treble-8
V: 4 clef=bass
K: C
[V:1] c8 | 
[V:2] G4G2G2 | 
[V:3] z8 | 
[V:4] C4C2C2 | 
[V:1] c2c2d4 | 
[V:2] A4B4 | 
[V:3] z4g4 | 
[V:4] A,4G,4 | 
[V:1] e8 | 
[V:2] z4c4- | 
[V:3] g2g2e4 | 
[V:4] z2C4A,2- | 
[V:1] z8 | 
[V:2] c2c2B4 | 
[V:3] c3de2d2- | 
[V:4] A,2G,F,G,2G,2 | 
[V:1] f6f2 | 
[V:2] A8- | 
[V:3] dcA2d2d2 | 
[V:4] D,4z2D2- | 
[V:1] e4d4 | 
[V:2] A4z2B2- | 
[V:3] A4z4 | 
[V:4] D2C2B,2G,2- | 
[V:1] z2e4d2 | 
[V:2] B2A2G4 | 
[V:3] z8 | 
[V:4] G,2C4B,2 | 
[V:1] c2f4e2 | 
[V:2] A4G3A | 
[V:3] z2A2c3d | 
[V:4] A,2F,2C,4 | 
[V:1] d2cBA2GA | 
[V:2] _B2AGF2G2- | 
[V:3] d2f4e2 | 
[V:4] z4z2G,2- | 
[V:1] Bcdef2d2- | 
[V:2] GABA/B/c2BA- | 
[V:3] d2cBA3F | 
[V:4] G,2G,2F,4 | 
[V:1] ddc2d3e/d/ | 
[V:2] AGc4B2 | 
[V:3] f2e2d4 | 
[V:4] D,2E,2F,2G,2 | 
[V:1] e8 | 
[V:2] c3BA2GF | 
[V:3] c8- | 
[V:4] C,4z2C,2 | 
[V:1] z8 | 
[V:2] E4z2G2 | 
[V:3] c4z2c2 | 
[V:4] C,2C,3D,E,C, | 
[V:1] z4z2c2 | 
[V:2] A2A2G4 | 
[V:3] c2c3dec | 
[V:4] F,4C,4 | 
[V:1] c2c3dec | 
[V:2] z4z2G2 | 
[V:3] f4e4 | 
[V:4] z8 | 
[V:1] f4e4 | 
[V:2] A2B2c2C2 | 
[V:3] z4z2g2 | 
[V:4] z4C4 | 
[V:1] z8 | 
[V:2] EDEFG2A2 | 
[V:3] g2e4dc | 
[V:4] C2C2C2B,A, | 
[V:1] z8 | 
[V:2] B2c4B2 | 
[V:3] d2e2d4 | 
[V:4] G,8 | 
[V:1] z4z2d2- | 
[V:2] c4z2B2- | 
[V:3] c4g4 | 
[V:4] z2A,2G,3A, | 
[V:1] d2c2d3B | 
[V:2] B2A2B3G | 
[V:3] f2e2d2e2- | 
[V:4] B,2C2G,2C2- | 
[V:1] c2d2B2c2 | 
[V:2] A2B3GA2 | 
[V:3] edd2g2fe | 
[V:4] C2B,2E2DC | 
[V:1] d2e4d2 | 
[V:2] B2c4B2 | 
[V:3] d2c2d4 | 
[V:4] B,2A,2G,4 | 
[V:1] e8 | 
[V:2] c4z4 | 
[V:3] c2g2g2e2- | 
[V:4] C,4z2C2 | 
[V:1] z8 | 
[V:2] z8 | 
[V:3] e2a4g2- | 
[V:4] C2A,4B,2 | 
[V:1] z8 | 
[V:2] z8 | 
[V:3] gfedc2d2- | 
[V:4] C3B,A,G,F,E, | 
[V:1] z8 | 
[V:2] z4A4 | 
[V:3] dBc2d2d2 | 
[V:4] D,2E,2F,2F,2 | 
[V:1] z8 | 
[V:2] G4G2G2- | 
[V:3] e8- | 
[V:4] C,8 | 
[V:1] z4e4 | 
[V:2] GABGc4 | 
[V:3] e4z2g2- | 
[V:4] z4C,4 | 
[V:1] d4d2d2- | 
[V:2] B2B2B4- | 
[V:3] g2g2g2fe | 
[V:4] G,6G,2 | 
[V:1] d2g4g2 | 
[V:2] B2AGG4 | 
[V:3] d2e4c2 | 
[V:4] G,4E,4 | 
[V:1] f4d4 | 
[V:2] z4G4- | 
[V:3] dcBAB2cB | 
[V:4] D,2D,2G,4 | 
[V:1] e8 | 
[V:2] G2G2G4 | 
[V:3] c8 | 
[V:4] C,4z2C2- | 
[V:1] z8 | 
[V:2] A4G4 | 
[V:3] z4c4- | 
[V:4] C2C2E4 | 
[V:1] z4c4- | 
[V:2] c3BAGA2- | 
[V:3] c2c2e4 | 
[V:4] A,2C3B,A,G, | 
[V:1] c2c2e4 | 
[V:2] A2GFG2c2- | 
[V:3] f4e2e2- | 
[V:4] F,2E,D,C,4 | 
[V:1] f4e4 | 
[V:2] c2B2c2B2- | 
[V:3] e2d2c2e2- | 
[V:4] z8 | 
[V:1] z2e4d2 | 
[V:2] B2G2A4 | 
[V:3] efgef3e | 
[V:4] z8 | 
[V:1] c2e3fge | 
[V:2] z2c4B2 | 
[V:3] e2a2g2e2 | 
[V:4] C3DE2E2 | 
[V:1] f2e4d2 | 
[V:2] cBAGA4 | 
[V:3] agfef4 | 
[V:4] A,B,CB,/C/D4 | 
[V:1] e8 | 
[V:2] G2A2E4 | 
[V:3] e4z2e2 | 
[V:4] z2A,4A,2 | 
[V:1] z8 | 
[V:2] z8 | 
[V:3] e2d2c2e2- | 
[V:4] G,2F,2A,3B, | 
[V:1] z8 | 
[V:2] z8 | 
[V:3] efgef2e2- | 
[V:4] CA,B,2A,G,F,E, | 
[V:1] z8 | 
[V:2] z4z2C2 | 
[V:3] e2d2e4 | 
[V:4] F,4E,4 | 
[V:1] z8 | 
[V:2] E3FG2A2 | 
[V:3] e8 | 
[V:4] z2C,2E,2F,2 | 
[V:1] z2G2B2c2 | 
[V:2] B8 | 
[V:3] d4d4 | 
[V:4] G,4G,4 | 
[V:1] d2e2f4 | 
[V:2] B4z2B2 | 
[V:3] d8 | 
[V:4] z8 | 
[V:1] e4z4 | 
[V:2] c2E2G2A2 | 
[V:3] c8 | 
[V:4] z2C,2E,2F,2 | 
[V:1] z2G2B2c2 | 
[V:2] B6AG | 
[V:3] z4e4 | 
[V:4] G,4G,3A, | 
[V:1] d2e2f4 | 
[V:2] G4z4 | 
[V:3] d2c2d4 | 
[V:4] B,2C4B,2 | 
[V:1] e2g4e2 | 
[V:2] G6G2 | 
[V:3] c4e4 | 
[V:4] C3B,G,2C2 | 
[V:1] fedcB2cB | 
[V:2] _B3AGFG2 | 
[V:3] d2c2d4 | 
[V:4] _B,2C2G,4 | 
[V:1] c8 | 
[V:2] E4F2A2- | 
[V:3] c8 | 
[V:4] z2A,4A,2 | 
[V:1] z8 | 
[V:2] A2GFG4 | 
[V:3] z4c4 | 
[V:4] F,2E,D,E,2E,2 | 
[V:1] z2A3AA2 | 
[V:2] F8 | 
[V:3] d8 | 
[V:4] D,8 | 
[V:1] B4G3A | 
[V:2] z2D2D2C2 | 
[V:3] d4e4 | 
[V:4] G,3F,E,4 | 
[V:1] Bcd4c2 | 
[V:2] D3CB,2A,2- | 
[V:3] f8 | 
[V:4] D,4z4 | 
[V:1] d2A4c2 | 
[V:2] A,2D3CC2 | 
[V:3] f4e4 | 
[V:4] z2D,2A,4 | 
[V:1] d2f3ec2 | 
[V:2] F3ECDE2 | 
[V:3] d3ef2e2- | 
[V:4] D,4A,3G, | 
[V:1] d4z2G2- | 
[V:2] F4G4 | 
[V:3] e2d2e3d | 
[V:4] F,4E,3F, | 
[V:1] G2c2d2f2- | 
[V:2] z4A4- | 
[V:3] e2c2f3e | 
[V:4] G,2A,2D,4 | 
[V:1] fee2d3c | 
[V:2] A2A2B3A | 
[V:3] d2c2B4 | 
[V:4] z8 | 
[V:1] B2d3ef2 | 
[V:2] G2B3cA2 | 
[V:3] z2B2d4 | 
[V:4] z2G,4F,2 | 
[V:1] g3fd2f2- | 
[V:2] G3AB2A2 | 
[V:3] e4B2d2- | 
[V:4] E,2G,4F,2 | 
[V:1] fedcBGBc | 
[V:2] F2A2G2cB | 
[V:3] def2g2e2 | 
[V:4] D,4E,2C,2 | 
[V:1] d2c4B2 | 
[V:2] AGFEG4 | 
[V:3] fedcd4 | 
[V:4] F,2A,2G,4 | 
[V:1] c8 ||  
[V:2] G8 ||  
[V:3] c8 ||  
[V:4] C,8 ||  
[V:1]  [K:C] [K:clef=treble][M:4/2]z8 | 
[V:2]  [K:C] [K:clef=treble][M:4/2]z8 | 
[V:3]  [K:C] [K:clef=treble-8][M:4/2]c8 | 
[V:4]  [K:C] [K:clef=bass][M:4/2]z4F,4- | 
[V:1] z8 | 
[V:2] z8 | 
[V:3] c2c2d4 | 
[V:4] F,4F,2F,2 | 
[V:1] z8 | 
[V:2] z8 | 
[V:3] e4e4 | 
[V:4] G,4A,4 | 
[V:1] z8 | 
[V:2] z8 | 
[V:3] f6ed | 
[V:4] D,4F,2G,2 | 
[V:1] c8 | 
[V:2] z8 | 
[V:3] f3ec4 | 
[V:4] A,3G,A,B,C2- | 
[V:1] c2c2d4 | 
[V:2] z8 | 
[V:3] z2f3ed2- | 
[V:4] CB,A,2G,2F,2 | 
[V:1] e4e4 | 
[V:2] G4G2G2 | 
[V:3] d2^cB^c4 | 
[V:4] E,8 | 
[V:1] f4c4 | 
[V:2] F4A4 | 
[V:3] d2f2f2f2- | 
[V:4] D,4z2F,2 | 
[V:1] z2f2f2f2- | 
[V:2] z2A4GF | 
[V:3] f2edf3e | 
[V:4] F,2F,2D,4 | 
[V:1] f2edf2ed | 
[V:2] A2B2c2BA | 
[V:3] d4c4 | 
[V:4] F,2G,2A,3B, | 
[V:1] c2f2e2d2- | 
[V:2] G2F2c2A2 | 
[V:3] z2a2a2f2 | 
[V:4] C2D2A,2D2 | 
[V:1] d2cBc4 | 
[V:2] B2G2A4 | 
[V:3] gfede2fe | 
[V:4] G,2B,2A,4 | 
[V:1] z2d4c2 | 
[V:2] z2F2G2E2 | 
[V:3] f2d2e4 | 
[V:4] D,4z2A,2 | 
[V:1] d2B2c2A2 | 
[V:2] F2D2E4 | 
[V:3] d4z4 | 
[V:4] D,2G,2C,D,E,F, | 
[V:1] B2G2B2c2 | 
[V:2] DCB,A,G,2C2- | 
[V:3] z8 | 
[V:4] G,2G,4F,E, | 
[V:1] d4e4 | 
[V:2] C2B,2C4 | 
[V:3] z2g2g2g2 | 
[V:4] F,2G,2C,2C2 | 
[V:1] z4c4- | 
[V:2] z8 | 
[V:3] g3fe2d2 | 
[V:4] C2C4B,2 | 
[V:1] c4c4 | 
[V:2] z8 | 
[V:3] c6BA | 
[V:4] A,2G,2F,4 | 
[V:1] e4f4 | 
[V:2] z8 | 
[V:3] G2c4B2 | 
[V:4] E,2C,2D,4 | 
[V:1] e2e2e4- | 
[V:2] G4A2c2- | 
[V:3] c4c4 | 
[V:4] C,8 | 
[V:1] e2dcd2c2- | 
[V:2] c2BAB2A2 | 
[V:3] e2e2f2f2 | 
[V:4] z8 | 
[V:1] cdefg4 | 
[V:2] G2c3BG2 | 
[V:3] e2c3de2 | 
[V:4] z8 | 
[V:1] f2e4d2 | 
[V:2] A2G2A4 | 
[V:3] d2e2f4 | 
[V:4] z8 | 
[V:1] e8 | 
[V:2] B6G2 | 
[V:3] e8 | 
[V:4] z4E,4 | 
[V:1] z8 | 
[V:2] G4z4 | 
[V:3] z4e4 | 
[V:4] E,3F,G,2A,2- | 
[V:1] z8 | 
[V:2] z8 | 
[V:3] e4d4 | 
[V:4] A,G,E,2F,2G,2 | 
[V:1] z8 | 
[V:2] z8 | 
[V:3] c2cdefge | 
[V:4] E,2F,3E,E,2 | 
[V:1] z8 | 
[V:2] z2A2A2A2 | 
[V:3] f2e4d2 | 
[V:4] A,3G,F,4 | 
[V:1] z4z2g2 | 
[V:2] G3AB2G2- | 
[V:3] e2e2e2e2 | 
[V:4] E,8 | 
[V:1] g2g2f4 | 
[V:2] GFGAB2c2- | 
[V:3] c2e2d3c | 
[V:4] z8 | 
[V:1] d4e4 | 
[V:2] c2B2c4 | 
[V:3] d4c4 | 
[V:4] z4C,4 | 
[V:1] z4z2d2- | 
[V:2] z2B2B2B2- | 
[V:3] z2d4d2 | 
[V:4] G,4G,2G,2- | 
[V:1] d2d2d2d2 | 
[V:2] B2AGA2A2 | 
[V:3] d8- | 
[V:4] G,2F,E,D,2D,2 | 
[V:1] B2d4cB | 
[V:2] G2A2B2AG | 
[V:3] d8 | 
[V:4] G,2D,2G,A,B,C | 
[V:1] A2d2B3c | 
[V:2] FEF2G2G2- | 
[V:3] z4d4- | 
[V:4] D4G,4 | 
[V:1] A4G4 | 
[V:2] G2^F2G4 | 
[V:3] d4d4 | 
[V:4] z4G,4 | 
[V:1] z8 | 
[V:2] z8 | 
[V:3] c4d4 | 
[V:4] A,2A,2F,4 | 
[V:1] z2g2g2g2 | 
[V:2] z2G2G2G2 | 
[V:3] e8 | 
[V:4] E,8 | 
[V:1] f2d2e2dc | 
[V:2] A2B2c2BA | 
[V:3] z4e4 | 
[V:4] z4C,4 | 
[V:1] B6AG | 
[V:2] G8 | 
[V:3] e6e2 | 
[V:4] E,4E,2G,2- | 
[V:1] B2c2A4 | 
[V:2] z8 | 
[V:3] d2c2d4 | 
[V:4] G,2F,E,F,4 | 
[V:1] G4z2B2- | 
[V:2] z2G4G2 | 
[V:3] e8 | 
[V:4] E,8 | 
[V:1] B2B2B4 | 
[V:2] G4G4 | 
[V:3] d4d2d2- | 
[V:4] G,4G,4- | 
[V:1] B2d3cc2 | 
[V:2] G4G4 | 
[V:3] d2d2e2e2 | 
[V:4] G,2G,2C,2C,2 | 
[V:1] B2d4cB | 
[V:2] G3F/G/A2D2- | 
[V:3] d3ef2g2- | 
[V:4] G,4D,4- | 
[V:1] A4G2e2- | 
[V:2] D2D2E2C2 | 
[V:3] g2f2e2g2- | 
[V:4] D,4z2C2- | 
[V:1] ecd2e2dc | 
[V:2] D4CDEF | 
[V:3] gaf2e2g2- | 
[V:4] CA,B,2C2G,2 | 
[V:1] BAc4B2 | 
[V:2] G8 | 
[V:3] g2fed4 | 
[V:4] G,8 | 
[V:1] [M:3/1]c8z4 | 
[V:2] [M:3/1]G4G4G4 | 
[V:3] [M:3/1]c12 | 
[V:4] C,12 | 
[V:1] c4c4c4 | 
[V:2] A4A6B2 | 
[V:3] z12 | 
[V:4] [M:3/1]z12 | 
[V:1] d4d6e2 | 
[V:2] B8z4 | 
[V:3] z12 | 
[V:4] z12 | 
[V:1] e12 | 
[V:2] c6A2c4 | 
[V:3] c4c4c4 | 
[V:4] A,8A,4 | 
[V:1] z12 | 
[V:2] B4A6G2 | 
[V:3] d4d6e2 | 
[V:4] G,4F,6E,2 | 
[V:1] g4g4e4 | 
[V:2] G6A2B2c2 | 
[V:3] e12 | 
[V:4] E,6F,2G,2A,2 | 
[V:1] f6e2d2c2 | 
[V:2] A6G2F2E2 | 
[V:3] z12 | 
[V:4] D,8F,4 | 
[V:1] B4e6c2 | 
[V:2] D4G2A2B2c2 | 
[V:3] g4g4e4 | 
[V:4] G,4E,2F,2G,2A,2 | 
[V:1] d6c2B2A2 | 
[V:2] A6G2F2E2 | 
[V:3] f6e2d2c2 | 
[V:4] D,8z4 | 
[V:1] G8d4- | 
[V:2] D4B6A2 | 
[V:3] B4d6c2 | 
[V:4] G,8G,4 | 
[V:1] d4d4d4 | 
[V:2] G6^F2F4 | 
[V:3] B4A8 | 
[V:4] G,4D,8 | 
[V:1] B6c2d2cd | 
[V:2] G12 | 
[V:3] G6A2B2AB | 
[V:4] z4G,6F,2 | 
[V:1] e4f4d4 | 
[V:2] z12 | 
[V:3] c6B2B4 | 
[V:4] E,4D,8 | 
[V:1] e6d2g4 | 
[V:2] G8G4 | 
[V:3] c4B6G2 | 
[V:4] C,4G,6C,2 | 
[V:1] d4g4f2e2 | 
[V:2] G6E2A4 | 
[V:3] B4c4d4- | 
[V:4] G,4E,4D,4- | 
[V:1] d2c2B2A2B4 | 
[V:2] F4G4D4 | 
[V:3] d4G4g4 | 
[V:4] D,4G,8 | 
[V:1] [M:3/1]B12- | 
[V:2] G4F2E2D2C2 | 
[V:3] d4g4f2e2 | 
[V:4] [M:3/1]G,12- | 
[V:1] B12- | 
[V:2] D4G,4G4 | 
[V:3] d2c2d4G4 | 
[V:4] G,12- | 
[V:1] B12- | 
[V:2] F2E2D2C2B,2A,2 | 
[V:3] g4f2e2d2c2 | 
[V:4] G,12- | 
[V:1] B12 | 
[V:2] G,4G8 | 
[V:3] e4d8 | 
[V:4] G,12 | 
[V:1] z12 | 
[V:2] E12- | 
[V:3] c12- | 
[V:4] C,12- | 
[V:1] z6c6 | 
[V:2] E12- | 
[V:3] c12- | 
[V:4] C,12- | 
[V:1] c12 |]  
[V:2] E12 |]  
[V:3] c12 |]  
[V:4] C,12 |]  



